humanity-icon-theme/Humanity/apps/24/gnome-inhibit-applet.svg

<?xml version="1.0" encoding="UTF-8" standalone="no"?>
<!-- Created with Inkscape (http://www.inkscape.org/) -->

<svg
   xmlns:svg="http://www.w3.org/2000/svg"
   xmlns="http://www.w3.org/2000/svg"
   xmlns:xlink="http://www.w3.org/1999/xlink"
   version="1.0"
   width="24"
   height="24"
   id="svg11300">
  <defs
     id="defs3">
    <linearGradient
       id="linearGradient14993">
      <stop
         id="stop14995"
         style="stop-color:black;stop-opacity:1"
         offset="0" />
      <stop
         id="stop14997"
         style="stop-color:black;stop-opacity:0"
         offset="1" />
    </linearGradient>
    <linearGradient
       id="linearGradient14981-4">
      <stop
         id="stop14983-1"
         style="stop-color:#6d9335;stop-opacity:1"
         offset="0" />
      <stop
         id="stop14985-7"
         style="stop-color:#364d17;stop-opacity:1"
         offset="1" />
    </linearGradient>
    <linearGradient
       id="linearGradient14780-7">
      <stop
         id="stop14782-0"
         style="stop-color:#d3ba00;stop-opacity:1"
         offset="0" />
      <stop
         id="stop14784-4"
         style="stop-color:#d3ba00;stop-opacity:0"
         offset="1" />
    </linearGradient>
    <linearGradient
       id="linearGradient14861-7">
      <stop
         id="stop14863-5"
         style="stop-color:white;stop-opacity:1"
         offset="0" />
      <stop
         id="stop14865-8"
         style="stop-color:white;stop-opacity:0"
         offset="1" />
    </linearGradient>
    <linearGradient
       id="linearGradient7622">
      <stop
         id="stop7624"
         style="stop-color:white;stop-opacity:1"
         offset="0" />
      <stop
         id="stop7626"
         style="stop-color:white;stop-opacity:0"
         offset="1" />
    </linearGradient>
    <linearGradient
       x1="16.964844"
       y1="20.165941"
       x2="18.968426"
       y2="31.347067"
       id="linearGradient3721"
       xlink:href="#linearGradient14861-7"
       gradientUnits="userSpaceOnUse"
       gradientTransform="matrix(0.39731096,0,0,0.39082257,4.1430281,0.89327125)" />
    <radialGradient
       cx="21.5"
       cy="44.75"
       r="17"
       fx="21.5"
       fy="44.75"
       id="radialGradient3975"
       xlink:href="#linearGradient14993"
       gradientUnits="userSpaceOnUse"
       gradientTransform="matrix(0.70588238,0,0,0.0882352,-3.176471,18.551472)" />
    <linearGradient
       x1="6.2209711"
       y1="42.890816"
       x2="6.2376504"
       y2="39.266895"
       id="linearGradient4758"
       xlink:href="#linearGradient14780-7"
       gradientUnits="userSpaceOnUse"
       gradientTransform="matrix(1.0000009,0,0,0.56326439,9.9999977,-3.3017486)" />
    <linearGradient
       x1="6.2209711"
       y1="42.890816"
       x2="6.2376504"
       y2="39.266895"
       id="linearGradient4761"
       xlink:href="#linearGradient14780-7"
       gradientUnits="userSpaceOnUse"
       gradientTransform="matrix(0.9999997,0,0,0.56326439,8.0000009,-3.3017486)" />
    <linearGradient
       x1="6.2209711"
       y1="42.890816"
       x2="6.2376504"
       y2="39.266895"
       id="linearGradient4764"
       xlink:href="#linearGradient14780-7"
       gradientUnits="userSpaceOnUse"
       gradientTransform="matrix(0.9999997,0,0,0.56326439,6.0000015,-3.3017486)" />
    <linearGradient
       x1="6.2209711"
       y1="42.890816"
       x2="6.2376504"
       y2="39.266895"
       id="linearGradient4767"
       xlink:href="#linearGradient14780-7"
       gradientUnits="userSpaceOnUse"
       gradientTransform="matrix(0.99999854,0,0,0.56326439,4.0000096,-3.3017486)" />
    <linearGradient
       x1="6.2209711"
       y1="42.890816"
       x2="6.2376504"
       y2="39.266895"
       id="linearGradient4770"
       xlink:href="#linearGradient14780-7"
       gradientUnits="userSpaceOnUse"
       gradientTransform="matrix(1.0000004,0,0,0.56326439,1.9999977,-3.3017493)" />
    <linearGradient
       x1="6.2209711"
       y1="42.890816"
       x2="6.2376504"
       y2="39.266895"
       id="linearGradient4773"
       xlink:href="#linearGradient14780-7"
       gradientUnits="userSpaceOnUse"
       gradientTransform="matrix(1,0,0,0.56326439,-3.4736547e-7,-3.3017493)" />
    <radialGradient
       cx="10"
       cy="16.655396"
       r="16.000418"
       fx="10"
       fy="16.655396"
       id="radialGradient4795"
       xlink:href="#linearGradient7622"
       gradientUnits="userSpaceOnUse"
       gradientTransform="matrix(1.4043815,0.04555468,-0.03427223,1.0005357,-9.1510284,-9.219333)" />
    <radialGradient
       cx="15"
       cy="19.770353"
       r="17.001272"
       fx="15"
       fy="19.770353"
       id="radialGradient4797"
       xlink:href="#linearGradient14981-4"
       gradientUnits="userSpaceOnUse"
       gradientTransform="matrix(2.2011105,0,0,0.9928155,-26.19895,-10.347918)" />
  </defs>
  <path
     d="M 2.5026692,19.5 4.5,19.5 l 0,3 15,0 0,-3 1.999951,0 0,-15.0000563 L 2.5,4.499942 2.50273,19.5 l -6.08e-5,0 z"
     id="rect14772"
     style="color:black;fill:url(#radialGradient4797);fill-opacity:1;fill-rule:nonzero;stroke:#2d410f;stroke-width:1;stroke-linecap:butt;stroke-linejoin:round;stroke-miterlimit:4;stroke-opacity:1;stroke-dasharray:none;stroke-dashoffset:0;marker:none;visibility:visible;display:block;overflow:visible" />
  <path
     d="m 24,22.5 a 12,1.5 0 0 1 -24,0 12,1.5 0 1 1 24,0 z"
     id="path14991"
     style="opacity:0.5;color:black;fill:url(#radialGradient3975);fill-opacity:1;fill-rule:nonzero;stroke:none;stroke-width:1;marker:none;visibility:visible;display:block;overflow:visible" />
  <path
     d="m 14.874,14.275 -7.632,0 0,2.020419"
     id="path14957"
     style="color:black;fill:none;stroke:#305526;stroke-width:0.5;stroke-linecap:butt;stroke-linejoin:miter;stroke-miterlimit:4;stroke-opacity:1;stroke-dasharray:none;stroke-dashoffset:0;marker:none;visibility:visible;display:block;overflow:visible" />
  <path
     d="m 6.25,20.95 0.03097,-3.24193 1.0733801,-1.49541 11.9356499,0 0,-4.81266 -2.623305,-1.641 2.038425,0 0,-1.9664324 -4.10512,0"
     id="path14826"
     style="color:black;fill:none;stroke:#305526;stroke-width:0.5;stroke-linecap:butt;stroke-linejoin:miter;stroke-miterlimit:4;stroke-opacity:1;stroke-dasharray:none;stroke-dashoffset:0;marker:none;visibility:visible;display:block;overflow:visible" />
  <path
     d="m 10.25,21.078451 0.03097,-3.24193 1.073379,-1.49541"
     id="path14830"
     style="color:black;fill:none;stroke:#305526;stroke-width:0.5;stroke-linecap:butt;stroke-linejoin:miter;stroke-miterlimit:4;stroke-opacity:1;stroke-dasharray:none;stroke-dashoffset:0;marker:none;visibility:visible;display:block;overflow:visible" />
  <path
     d="m 8.25,21.078451 0.03097,-3.24193 1.0733796,-1.49541"
     id="path14838"
     style="color:black;fill:none;stroke:#305526;stroke-width:0.5;stroke-linecap:butt;stroke-linejoin:miter;stroke-miterlimit:4;stroke-opacity:1;stroke-dasharray:none;stroke-dashoffset:0;marker:none;visibility:visible;display:block;overflow:visible" />
  <path
     d="m 12.25,21.078451 0.03096,-3.24193 1.073379,-1.49541"
     id="path14840"
     style="color:black;fill:none;stroke:#305526;stroke-width:0.5;stroke-linecap:butt;stroke-linejoin:miter;stroke-miterlimit:4;stroke-opacity:1;stroke-dasharray:none;stroke-dashoffset:0;marker:none;visibility:visible;display:block;overflow:visible" />
  <path
     d="m 14.25,21.078451 0.03096,-3.24193 1.073379,-1.49541"
     id="path14842"
     style="color:black;fill:none;stroke:#305526;stroke-width:0.5;stroke-linecap:butt;stroke-linejoin:miter;stroke-miterlimit:4;stroke-opacity:1;stroke-dasharray:none;stroke-dashoffset:0;marker:none;visibility:visible;display:block;overflow:visible" />
  <path
     d="m 16.25,21.078451 0.03096,-3.24193 1.073379,-1.49541"
     id="path14844"
     style="color:black;fill:none;stroke:#305526;stroke-width:0.5;stroke-linecap:butt;stroke-linejoin:miter;stroke-miterlimit:4;stroke-opacity:1;stroke-dasharray:none;stroke-dashoffset:0;marker:none;visibility:visible;display:block;overflow:visible" />
  <path
     d="M 6.4999999,19 C 6.9029842,19 7,19.354433 7,19.510457 L 7,22 c 0,0 -1,0 -1,0 L 6,19.510457 C 6,19.354433 6.1048905,19 6.4999999,19 z"
     id="path14788"
     style="color:black;fill:url(#linearGradient4773);fill-opacity:1;fill-rule:nonzero;stroke:none;stroke-width:1;marker:none;visibility:visible;display:block;overflow:visible" />
  <path
     d="M 8.4999993,19 C 8.9029839,19 9,19.354433 9,19.510457 L 9,22 c 0,0 -1,0 -1,0 L 8,19.510457 C 8,19.354433 8.1048894,19 8.4999993,19 z"
     id="path14792"
     style="color:black;fill:url(#linearGradient4770);fill-opacity:1;fill-rule:nonzero;stroke:none;stroke-width:1;marker:none;visibility:visible;display:block;overflow:visible" />
  <path
     d="M 10.499999,19 C 10.902984,19 11,19.354434 11,19.510459 L 11,22 c 0,0 -1,0 -1,0 l 0,-2.489541 C 10,19.354434 10.104893,19 10.499999,19 z"
     id="path14796"
     style="color:black;fill:url(#linearGradient4767);fill-opacity:1;fill-rule:nonzero;stroke:none;stroke-width:1;marker:none;visibility:visible;display:block;overflow:visible" />
  <path
     d="M 12.499999,19 C 12.902984,19 13,19.354434 13,19.510459 L 13,22 c 0,0 -1,0 -1,0 l 0,-2.489541 C 12,19.354434 12.104893,19 12.499999,19 z"
     id="path14800"
     style="color:black;fill:url(#linearGradient4764);fill-opacity:1;fill-rule:nonzero;stroke:none;stroke-width:1;marker:none;visibility:visible;display:block;overflow:visible" />
  <path
     d="M 14.499997,19 C 14.902982,19 15,19.354434 15,19.510459 L 15,22 c 0,0 -1,0 -1,0 l 0,-2.489541 C 14,19.354434 14.104893,19 14.499997,19 z"
     id="path14804"
     style="color:black;fill:url(#linearGradient4761);fill-opacity:1;fill-rule:nonzero;stroke:none;stroke-width:1;marker:none;visibility:visible;display:block;overflow:visible" />
  <path
     d="M 16.500001,19 C 16.902984,19 17,19.354434 17,19.510459 L 17,22 c 0,0 -1,0 -1,0 l 0,-2.489541 C 16,19.354434 16.104893,19 16.500001,19 z"
     id="path14808"
     style="color:black;fill:url(#linearGradient4758);fill-opacity:1;fill-rule:nonzero;stroke:none;stroke-width:1;marker:none;visibility:visible;display:block;overflow:visible" />
  <path
     d="M 6.3827766,8.0925382 4.8,8.6884103 4.8,15.201 l 2.5,0"
     id="path15029"
     style="color:black;fill:none;stroke:#305526;stroke-width:0.5;stroke-linecap:butt;stroke-linejoin:miter;stroke-miterlimit:4;stroke-opacity:1;stroke-dasharray:none;stroke-dashoffset:0;marker:none;visibility:visible;display:block;overflow:visible" />
  <path
     d="m 6.9930703,11.73511 0.5989041,2.35444 1.0979899,0 -0.5989033,-2.35444"
     id="path14959"
     style="color:black;fill:none;stroke:#305526;stroke-width:0.5;stroke-linecap:butt;stroke-linejoin:miter;stroke-miterlimit:4;stroke-opacity:1;stroke-dasharray:none;stroke-dashoffset:0;marker:none;visibility:visible;display:block;overflow:visible" />
  <path
     d="m 9.2516782,11.791681 0.5989028,2.297869 1.097991,0 -0.598904,-2.297869"
     id="path14961"
     style="color:black;fill:none;stroke:#305526;stroke-width:0.5;stroke-linecap:butt;stroke-linejoin:miter;stroke-miterlimit:4;stroke-opacity:1;stroke-dasharray:none;stroke-dashoffset:0;marker:none;visibility:visible;display:block;overflow:visible" />
  <path
     d="m 11.510285,11.705967 0.598903,2.383583 1.097992,0 -0.598905,-2.383583"
     id="path14963"
     style="color:black;fill:none;stroke:#305526;stroke-width:0.5;stroke-linecap:butt;stroke-linejoin:miter;stroke-miterlimit:4;stroke-opacity:1;stroke-dasharray:none;stroke-dashoffset:0;marker:none;visibility:visible;display:block;overflow:visible" />
  <path
     d="m 13.768891,11.681966 0.598904,2.407584"
     id="path14965"
     style="color:black;fill:none;stroke:#305526;stroke-width:0.5;stroke-linecap:butt;stroke-linejoin:miter;stroke-miterlimit:4;stroke-opacity:1;stroke-dasharray:none;stroke-dashoffset:0;marker:none;visibility:visible;display:block;overflow:visible" />
  <path
     d="M 3.5000887,18.5 5.5,18.5 l 0,3 13,-0.0013 0,-2.9987 1.997903,0 c 0.0022,-2.19e-4 0.0021,-12.9988683 0.0021,-12.9988683 L 3.5019195,5.5000006 C 3.5041095,9.9497658 3.4999995,18.5 3.4999995,18.5 l 8.92e-5,0 z"
     id="path14989"
     style="opacity:0.23863633;color:black;fill:none;stroke:url(#radialGradient4795);stroke-width:1.0000006;stroke-linecap:butt;stroke-linejoin:miter;stroke-miterlimit:4;stroke-opacity:1;stroke-dasharray:none;stroke-dashoffset:0;marker:none;visibility:visible;display:block;overflow:visible" />
  <rect
     width="8.000001"
     height="4.0000005"
     rx="0.5"
     ry="0.5"
     x="6.4999995"
     y="7.5"
     id="rect14857-2"
     style="color:black;fill:#646662;fill-opacity:1;fill-rule:nonzero;stroke:#2e3436;stroke-width:0.9999994;stroke-linecap:butt;stroke-linejoin:miter;stroke-miterlimit:4;stroke-opacity:1;stroke-dasharray:none;stroke-dashoffset:0;marker:none;visibility:visible;display:block;overflow:visible" />
  <rect
     width="6"
     height="2.0000002"
     rx="0"
     ry="0"
     x="7.5"
     y="8.5"
     id="rect14859-2"
     style="opacity:0.25;color:black;fill:none;stroke:url(#linearGradient3721);stroke-width:0.99999982;stroke-linecap:butt;stroke-linejoin:miter;stroke-miterlimit:4;stroke-opacity:1;stroke-dasharray:none;stroke-dashoffset:0;marker:none;visibility:visible;display:block;overflow:visible" />
  <path
     d="m 22.499726,3.5203312 -3.368576,3.027844 3.368576,0 0,1.963855 -5.999454,0 0,-2.187131 3.11703,-2.767163 -3.11703,0 0,-2.04516 5.999454,0 0,2.007755 z"
     id="path13687"
     style="font-size:10px;font-style:normal;font-variant:normal;font-weight:normal;font-stretch:normal;line-height:100%;writing-mode:lr-tb;text-anchor:start;fill:#7da5ca;fill-opacity:1;stroke:#356ca0;stroke-width:1;stroke-linecap:butt;stroke-linejoin:miter;stroke-miterlimit:4;stroke-opacity:1;stroke-dasharray:none;font-family:Segoe" />
  <path
     d="m 19.499999,12.683559 -2.326359,1.856163 2.326359,0 0,1.960278 -4.999999,0 0,-2.130028 2.194321,-1.873657 -2.194321,0 0,-1.984012 4.999999,0 0,2.171256 z"
     id="path13696"
     style="font-size:10px;font-style:normal;font-variant:normal;font-weight:normal;font-stretch:normal;line-height:100%;writing-mode:lr-tb;text-anchor:start;fill:#7da5ca;fill-opacity:1;stroke:#356ca0;stroke-width:0.99999988;stroke-linecap:butt;stroke-linejoin:miter;stroke-miterlimit:4;stroke-opacity:1;stroke-dasharray:none;font-family:Segoe" />
</svg>

<?xml version="1.0" encoding="UTF-8" standalone="no"?>
<!-- Created with Inkscape (http://www.inkscape.org/) -->
<svg id="svg11300" xmlns="http://www.w3.org/2000/svg" height="24" width="24" version="1.0" xmlns:xlink="http://www.w3.org/1999/xlink">
 <defs id="defs3">
  <linearGradient id="linearGradient14780-7">
   <stop id="stop14782-0" style="stop-color:#d3ba00" offset="0"/>
   <stop id="stop14784-4" style="stop-color:#d3ba00;stop-opacity:0" offset="1"/>
  </linearGradient>
  <linearGradient id="linearGradient3721" y2="31.347" gradientUnits="userSpaceOnUse" x2="18.968" gradientTransform="matrix(.39731 0 0 .39082 4.143 .89327)" y1="20.166" x1="16.965">
   <stop id="stop14863-5" style="stop-color:#fff" offset="0"/>
   <stop id="stop14865-8" style="stop-color:#fff;stop-opacity:0" offset="1"/>
  </linearGradient>
  <radialGradient id="radialGradient3975" gradientUnits="userSpaceOnUse" cy="44.75" cx="21.5" gradientTransform="matrix(.70588 0 0 .088235 -3.1765 18.551)" r="17">
   <stop id="stop14995" offset="0"/>
   <stop id="stop14997" style="stop-opacity:0" offset="1"/>
  </radialGradient>
  <linearGradient id="linearGradient4758" y2="39.267" xlink:href="#linearGradient14780-7" gradientUnits="userSpaceOnUse" x2="6.2377" gradientTransform="matrix(1 0 0 .56326 10 -3.3017)" y1="42.891" x1="6.221"/>
  <linearGradient id="linearGradient4761" y2="39.267" xlink:href="#linearGradient14780-7" gradientUnits="userSpaceOnUse" x2="6.2377" gradientTransform="matrix(1 0 0 .56326 8 -3.3017)" y1="42.891" x1="6.221"/>
  <linearGradient id="linearGradient4764" y2="39.267" xlink:href="#linearGradient14780-7" gradientUnits="userSpaceOnUse" x2="6.2377" gradientTransform="matrix(1 0 0 .56326 6 -3.3017)" y1="42.891" x1="6.221"/>
  <linearGradient id="linearGradient4767" y2="39.267" xlink:href="#linearGradient14780-7" gradientUnits="userSpaceOnUse" x2="6.2377" gradientTransform="matrix(1 0 0 .56326 4 -3.3017)" y1="42.891" x1="6.221"/>
  <linearGradient id="linearGradient4770" y2="39.267" xlink:href="#linearGradient14780-7" gradientUnits="userSpaceOnUse" x2="6.2377" gradientTransform="matrix(1 0 0 .56326 2 -3.3017)" y1="42.891" x1="6.221"/>
  <linearGradient id="linearGradient4773" y2="39.267" xlink:href="#linearGradient14780-7" gradientUnits="userSpaceOnUse" x2="6.2377" gradientTransform="matrix(1 0 0 .56326 -3.4737e-7 -3.3017)" y1="42.891" x1="6.221"/>
  <radialGradient id="radialGradient4795" gradientUnits="userSpaceOnUse" cy="16.655" cx="10" gradientTransform="matrix(1.4044 .045555 -.034272 1.0005 -9.151 -9.2193)" r="16">
   <stop id="stop7624" style="stop-color:#fff" offset="0"/>
   <stop id="stop7626" style="stop-color:#fff;stop-opacity:0" offset="1"/>
  </radialGradient>
  <radialGradient id="radialGradient4797" gradientUnits="userSpaceOnUse" cy="19.77" cx="15" gradientTransform="matrix(2.2011 0 0 .99282 -26.199 -10.348)" r="17.001">
   <stop id="stop14983-1" style="stop-color:#6d9335" offset="0"/>
   <stop id="stop14985-7" style="stop-color:#364d17" offset="1"/>
  </radialGradient>
 </defs>
 <path id="rect14772" style="stroke-linejoin:round;color:black;stroke:#2d410f;display:block;fill:url(#radialGradient4797)" d="m2.5027 19.5h1.9973v3h15v-3h2v-15l-19-0.0001 0.0027 15h-0.0000608z"/>
 <path id="path14991" style="opacity:.5;color:black;display:block;fill:url(#radialGradient3975)" d="m24 22.5a12 1.5 0 0 1 -24 0 12 1.5 0 1 1 24 0z"/>
 <path id="path14957" style="color:black;stroke:#305526;stroke-width:.5;display:block;fill:none" d="m14.874 14.275h-7.632v2.0204"/>
 <path id="path14826" style="color:black;stroke:#305526;stroke-width:.5;display:block;fill:none" d="m6.25 20.95 0.03097-3.2419 1.0734-1.4954h11.936v-4.8127l-2.6233-1.641h2.0384v-1.9664h-4.1051"/>
 <path id="path14830" style="color:black;stroke:#305526;stroke-width:.5;display:block;fill:none" d="m10.25 21.078 0.03097-3.2419 1.0734-1.4954"/>
 <path id="path14838" style="color:black;stroke:#305526;stroke-width:.5;display:block;fill:none" d="m8.25 21.078 0.03097-3.2419 1.0734-1.4954"/>
 <path id="path14840" style="color:black;stroke:#305526;stroke-width:.5;display:block;fill:none" d="m12.25 21.078 0.03096-3.2419 1.0734-1.4954"/>
 <path id="path14842" style="color:black;stroke:#305526;stroke-width:.5;display:block;fill:none" d="m14.25 21.078 0.03096-3.2419 1.0734-1.4954"/>
 <path id="path14844" style="color:black;stroke:#305526;stroke-width:.5;display:block;fill:none" d="m16.25 21.078 0.03096-3.2419 1.0734-1.4954"/>
 <path id="path14788" style="color:black;display:block;fill:url(#linearGradient4773)" d="m6.5 19c0.403 0 0.5 0.354 0.5 0.51v2.49h-1v-2.49c0-0.156 0.1049-0.51 0.5-0.51z"/>
 <path id="path14792" style="color:black;display:block;fill:url(#linearGradient4770)" d="m8.5 19c0.403 0 0.5 0.354 0.5 0.51v2.49h-1v-2.49c0-0.156 0.1049-0.51 0.5-0.51z"/>
 <path id="path14796" style="color:black;display:block;fill:url(#linearGradient4767)" d="m10.5 19c0.403 0 0.5 0.354 0.5 0.51v2.49h-1v-2.4895c0-0.156 0.105-0.51 0.5-0.51z"/>
 <path id="path14800" style="color:black;display:block;fill:url(#linearGradient4764)" d="m12.5 19c0.403 0 0.5 0.354 0.5 0.51v2.49h-1v-2.4895c0-0.156 0.105-0.51 0.5-0.51z"/>
 <path id="path14804" style="color:black;display:block;fill:url(#linearGradient4761)" d="m14.5 19c0.403 0 0.5 0.354 0.5 0.51v2.49h-1v-2.4895c0-0.156 0.105-0.51 0.5-0.51z"/>
 <path id="path14808" style="color:black;display:block;fill:url(#linearGradient4758)" d="m16.5 19c0.403 0 0.5 0.354 0.5 0.51v2.49h-1v-2.4895c0-0.156 0.105-0.51 0.5-0.51z"/>
 <path id="path15029" style="color:black;stroke:#305526;stroke-width:.5;display:block;fill:none" d="m6.3828 8.0925-1.5828 0.5959v6.5126h2.5"/>
 <path id="path14959" style="color:black;stroke:#305526;stroke-width:.5;display:block;fill:none" d="m6.9931 11.735 0.5989 2.3544h1.098l-0.5989-2.3544"/>
 <path id="path14961" style="color:black;stroke:#305526;stroke-width:.5;display:block;fill:none" d="m9.2517 11.792 0.5989 2.2979h1.098l-0.5989-2.2979"/>
 <path id="path14963" style="color:black;stroke:#305526;stroke-width:.5;display:block;fill:none" d="m11.51 11.706 0.5989 2.3836h1.098l-0.5989-2.3836"/>
 <path id="path14965" style="color:black;stroke:#305526;stroke-width:.5;display:block;fill:none" d="m13.769 11.682 0.5989 2.4076"/>
 <path id="path14989" style="opacity:.23864;color:black;stroke:url(#radialGradient4795);display:block;fill:none" d="m3.5001 18.5h1.9999v3l13-0.0013v-2.9987h1.9979c0.0022-0.000219 0.0021-12.999 0.0021-12.999l-16.998-0.001c0.0021 4.4498-0.002 13-0.002 13h0.0000892z"/>
 <rect id="rect14857-2" style="color:black;stroke:#2e3436;display:block;fill:#646662" rx=".5" ry=".5" height="4" width="8" y="7.5" x="6.5"/>
 <rect id="rect14859-2" style="opacity:.25;color:black;stroke:url(#linearGradient3721);display:block;fill:none" rx="0" ry="0" height="2" width="6" y="8.5" x="7.5"/>
 <path id="path13687" style="stroke:#356ca0;fill:#7da5ca" d="m22.5 3.5203-3.3686 3.0278h3.3686v1.9639h-5.9995v-2.1871l3.117-2.7672h-3.117v-2.0452h5.9995v2.0078z"/>
 <path id="path13696" style="stroke:#356ca0;fill:#7da5ca" d="m19.5 12.684-2.3264 1.8562h2.3264v1.9603h-5v-2.13l2.1943-1.8737h-2.1943v-1.984h5v2.1713z"/>
</svg>
